X:1
T:Jesus Comes
T:Jesus Comes
T:William James Kirkpatrick, 1882
T:Phoebe Worrell Palmer, 1869
T:Public Domain Courtesy of the Cyber Hymnal™
T:Public Domain Courtesy of the Cyber Hymnal™
C:William James Kirkpatrick, 1882
Z:Public Domain
Z:Courtesy of the Cyber Hymnal™
%%score ( 1 2 ) ( 3 4 )
L:1/8
Q:1/4=80
M:2/4
K:Db
V:1 treble 
V:2 treble 
V:3 bass 
V:4 bass 
V:1
 DD D>[DE] | [DF][FA] [GB][FA] | [CE][CE] [CE]>[DF] | [EG][FA] [GB][GA] | [Fd][Fd] [Fd]>[FA] | %5
w: 1.~Watch, ye saints, with|eye- lids wak- ing,|Lo, the pow’rs of|heav’n are shak- ing,|Keep your lamps all|
w: 2.~Lo! the prom- ise|of your Sav- ior;|Par- doned sin and|pur- chased fa- vor,|Blood washed robes and|
w: 3.~King- doms at their|base are crumb- ling,|Hark, His char- iot|wheels are rumb- ling;|Tell, O tell of|
w: 4.~Na- tions wane, tho’|proud and state- ly,|Christ His king- dom|hast- eneth great- ly;|Earth her lat- est|
w: 5.~Lamb of God! Thou|meek and low- ly,|Ju- dah’s li- on!|high and ho- ly;|Lo! Thy bride comes|
w: 6.~Sin- ners, come, while|Christ is plead- ing,|Now for you He’s|in- ter- ced- ing;|Haste, ere grace and|
 [GB][FA] [DF][FA] | [Fd][Fd] [Fd]>[FA] | [GB][FA] [DF][FA] ||"^Refrain" [Ad]2 [Ae]2 | [Af]4 | %10
w: trimmed and burn- ing,|Rea- dy for your|Lord’s re- turn- ing.|||
w: crowns of glo- ry;|Haste to tell re-|demp- tion’s sto- ry.|||
w: grace a- bound- ing,|Whilst the se- venth|trump is sound- ing.|Lo! He|comes,|
w: pangs is sum- ming,|Shout, ye saints, your|Lord is com- ing.|||
w: forth to meet Thee,|All in blood washed|robes to greet Thee.|||
w: time di- min- ished|Shall pro- claim the|mys- tery fin- ished.|||
 [Af]2 [Ae][=Gd] | !fermata![Ae]4 | [Fd][Fd] [Fd]>[FA] | [GB][FA] [DF][FA] | [Fd][Fd] [Fd]>[FA] | %15
w: |||||
w: |||||
w: lo! Je- sus|comes;|Lo! He comes, He|comes all glor- ious!|Je- sus comes to|
w: |||||
w: |||||
w: |||||
 [GB][FA] [DF][FA] | [Ad]2 [Ae]2 | [Af]4 | [Ge]2 [Fd][Ec] | !fermata![Fd]4 |] %20
w: |||||
w: |||||
w: reign vic- tor- ious,|Lo! He|comes,|yes! Je- sus|comes.|
w: |||||
w: |||||
w: |||||
V:2
 DD D3/2 x/ | x4 | x4 | x4 | x4 | x4 | x4 | x4 || x4 | x4 | x4 | x4 | x4 | x4 | x4 | x4 | x4 | x4 | %18
 x4 | x4 |] %20
V:3
 [D,F,][D,F,] [D,F,]>[D,G,] | [D,A,][D,D] [D,D][D,D] | A,A, A,>A, | A,[A,D] [A,C][A,C] | %4
 [D,A,][D,A,] [D,A,]>[D,D] | [D,D][D,D] [D,A,][D,D] | [D,A,][D,A,] [D,A,]>[D,D] | %7
 [D,D][D,D] [D,A,][D,D] || [F,D]2 [A,C]2 | [D,D]4 | D2 [CE][B,E] | !fermata![A,C]4 | %12
 [D,A,][D,A,] [D,A,]>[D,D] | [D,D][D,D] [D,A,][D,D] | [D,A,][D,A,] [D,A,]>[D,D] | %15
 [D,D][D,D] [D,A,][D,D] | [F,D]2 [A,C]2 | [D,D]4 | [G,B,]2 A,A, | !fermata![D,A,]4 |] %20
V:4
 x4 | x4 | A,A, A,>A, | A, x3 | x4 | x4 | x4 | x4 || x4 | x4 | D2 x2 | x4 | x4 | x4 | x4 | x4 | %16
 x4 | x4 | x2 A,A, | x4 |] %20

